X:21061
T:Come friends and relations 
C:Charles Clague 
C:Traditional
O:Isle of Man
Z:Clague collection
B:Kiaull Vannin #154
N:This tune is written as if it was a Dorian mode tune in C in the ms., 
N:with the G# in the above key it would be an Ionian mode tune in A. 
N:See also KV161, 246,277,367.
M:4/4 
L:1/8 
K:D 
E2|A2 AA Ac BA|B2 BB Bd cB|A2 AA Ac BG|E2 EE E2 cd| 
e2 af e2Bc|d2 ed dc BA|ce cA Bd BG|A2 AA A2 E2| 
A2 AA Ac- cA|B2 BB Bd- dB|A2 AA Ac cA|G2 EE E2 cd| 
e2 ee ec Ac|e2 dc d2 cd|e2 cA FB AG|A2 AA A2|| 
